assets/img/telegram.svg

<svg width="16" height="16" viewBox="0 0 16 16" fill="none" xmlns="http://www.w3.org/2000/svg">
<g clip-path="url(#clip0)">
<path d="M6.27812 10.1206L6.01345 13.8433C6.39212 13.8433 6.55612 13.6806 6.75279 13.4853L8.52812 11.7886L12.2068 14.4826C12.8815 14.8586 13.3568 14.6606 13.5388 13.862L15.9535 2.54731L15.9541 2.54664C16.1681 1.54931 15.5935 1.15931 14.9361 1.40398L0.742785 6.83798C-0.225881 7.21398 -0.211215 7.75398 0.578119 7.99864L4.20679 9.12731L12.6355 3.85331C13.0321 3.59064 13.3928 3.73598 13.0961 3.99864L6.27812 10.1206Z" fill="black"/>
</g>
<defs>
<clipPath id="clip0">
<rect width="16" height="16" fill="white"/>
</clipPath>
</defs>
</svg>

<svg width="16" height="16" fill="none" xmlns="http://www.w3.org/2000/svg"><g clip-path="url(#a)"><path d="m6.278 10.12-.265 3.723c.38 0 .543-.162.74-.358l1.775-1.696 3.679 2.694c.675.376 1.15.178 1.332-.621l2.415-11.315c.214-.998-.36-1.388-1.018-1.143L.743 6.838c-.969.376-.954.916-.165 1.16l3.629 1.13 8.428-5.275c.397-.262.758-.117.461.146L6.278 10.12Z" fill="#000"/></g><defs><clipPath id="a"><path fill="#fff" d="M0 0h16v16H0z"/></clipPath></defs></svg>
